src/svg/wpforms.svg

<svg height="1000" width="875.0" xmlns="http://www.w3.org/2000/svg">
    <path d="m875 146.9v706.4c0 47.5-37.1 84.4-84.4 84.4h-706.2c-46.7-0.2-84.4-36.5-84.4-84.6v-706.2c0-47.1 36.7-84.4 84.4-84.4h706.4c46.9 0 84.2 36.7 84.2 84.4z m-72.9 706.2v-706.2c0-5.9-5-11.4-11.3-11.4h-18.1l-215.5 145.7-119.7-97.4-119.5 97.4-215.5-145.8h-18.1c-6.3 0-11.4 5.4-11.4 11.3v706.4c0 5.9 5.1 11.4 11.4 11.4h706.4c6.3 0.1 11.3-5.3 11.3-11.4z m-508.7-489.8v72.2h-143.6v-72.2h143.6z m0 145.3v72.8h-143.6v-72.8h143.6z m21.6-287.7l105.5-85.4h-231.4z m410.2 142.4v72.2h-382.8v-72.2h382.8z m0 145.3v72.8h-382.8v-72.8h382.8z m-165.2-287.7l125.9-85.4h-231.2z m165.2 433.4v72.8h-194.1v-72.8h194.1z" />
  </svg>

<svg height="1000" width="875" xmlns="http://www.w3.org/2000/svg"><path d="M875 146.9v706.4c0 47.5 -37.1 84.4 -84.4 84.4H84.4C37.7 937.5 0 901.2 0 853.1V146.9C0 99.8 36.7 62.5 84.4 62.5h706.4c46.9 0 84.2 36.7 84.2 84.4zm-72.9 706.2V146.9c0 -5.9 -5 -11.4 -11.3 -11.4h-18.1L557.2 281.3 437.5 183.8 318 281.3 102.5 135.4H84.4c-6.3 0 -11.4 5.4 -11.4 11.3v706.4c0 5.9 5.1 11.4 11.4 11.4h706.4c6.3 .1 11.3 -5.3 11.3 -11.4zM293.4 363.3v72.2H149.8v-72.2h143.6zm0 145.3v72.8H149.8v-72.8h143.6zM315 220.9l105.5 -85.4H189.1L315 220.9zm410.2 142.4v72.2H342.4v-72.2h382.8zm0 145.3v72.8H342.4v-72.8h382.8zM560 220.9l125.9 -85.4H454.7L560 220.9zm165.2 433.4v72.8H531.1v-72.8h194.1z"/></svg>
